logos/seung-lab.svg

<?xml version="1.0" encoding="UTF-8"?>
<!DOCTYPE svg PUBLIC "-//W3C//DTD SVG 1.1//EN" "http://www.w3.org/Graphics/SVG/1.1/DTD/svg11.dtd">
<svg xmlns="http://www.w3.org/2000/svg" version="1.1" width="200px" height="200px" style="shape-rendering:geometricPrecision; text-rendering:geometricPrecision; image-rendering:optimizeQuality; fill-rule:evenodd; clip-rule:evenodd" xmlns:xlink="http://www.w3.org/1999/xlink">
<g><path style="opacity:1" fill="#fefefe" d="M -0.5,-0.5 C 66.1667,-0.5 132.833,-0.5 199.5,-0.5C 199.5,14.8333 199.5,30.1667 199.5,45.5C 196.402,43.8179 193.069,43.3179 189.5,44C 185.565,47.2284 181.232,49.7284 176.5,51.5C 174.167,51.5 171.833,51.5 169.5,51.5C 169.167,51.5 168.833,51.5 168.5,51.5C 167.855,50.1882 166.855,49.1882 165.5,48.5C 163.459,49.707 162.126,51.3737 161.5,53.5C 159.143,53.3367 156.81,53.5034 154.5,54C 153.619,54.7083 152.953,55.5416 152.5,56.5C 146.645,59.1185 140.645,61.1185 134.5,62.5C 134.344,59.9339 134.678,57.4339 135.5,55C 135.37,53.9412 134.87,53.1079 134,52.5C 132.796,57.3374 131.296,62.0041 129.5,66.5C 125.668,69.4989 122.335,72.9989 119.5,77C 119,77.1667 118.5,77.3333 118,77.5C 116.832,76.4911 115.665,75.4911 114.5,74.5C 111.089,79.359 107.589,83.359 104,86.5C 103.667,88.8333 103.333,91.1667 103,93.5C 99.3028,98.3623 95.1361,102.696 90.5,106.5C 88.6089,107.536 86.7755,107.536 85,106.5C 82.0118,102.192 79.8451,97.5249 78.5,92.5C 80.0174,92.4894 81.1841,91.8228 82,90.5C 83.1227,87.7513 84.6227,85.2513 86.5,83C 85.8333,82.3333 85.1667,82.3333 84.5,83C 82.8333,85.3333 81.1667,87.6667 79.5,90C 78.2068,90.49 76.8734,90.6567 75.5,90.5C 74.3775,88.7116 74.2109,86.7116 75,84.5C 77.2949,81.9352 80.1282,80.2686 83.5,79.5C 79.0523,76.7604 78.3856,73.2604 81.5,69C 87.5184,67.7463 89.5184,64.2463 87.5,58.5C 84.8557,61.1085 82.689,64.1085 81,67.5C 77.3673,72.5374 74.034,72.5374 71,67.5C 70.5017,64.1832 70.335,60.8499 70.5,57.5C 68.396,57.2011 66.396,57.5344 64.5,58.5C 68.5017,64.7107 67.835,70.544 62.5,76C 56.1388,78.5683 50.4722,82.235 45.5,87C 41.1932,87.4444 37.5266,89.1111 34.5,92C 30.083,94.244 25.4163,95.744 20.5,96.5C 20.4133,91.5698 18.08,89.4032 13.5,90C 11.9675,87.9711 10.3008,86.1378 8.5,84.5C 8.4257,82.5891 7.4257,81.4224 5.5,81C 3.5273,80.5045 1.5273,80.3379 -0.5,80.5C -0.5,53.5 -0.5,26.5 -0.5,-0.5 Z"/></g>
<g><path style="opacity:1" fill="#d9d48b" d="M 199.5,45.5 C 199.5,46.8333 199.5,48.1667 199.5,49.5C 191.97,50.5198 184.637,52.1864 177.5,54.5C 176.89,53.609 176.557,52.609 176.5,51.5C 181.232,49.7284 185.565,47.2284 189.5,44C 193.069,43.3179 196.402,43.8179 199.5,45.5 Z"/></g>
<g><path style="opacity:1" fill="#fefefe" d="M 199.5,49.5 C 199.5,99.5 199.5,149.5 199.5,199.5C 132.833,199.5 66.1667,199.5 -0.5,199.5C -0.5,160.167 -0.5,120.833 -0.5,81.5C 2.57862,82.304 5.57862,83.304 8.5,84.5C 7.90656,87.5959 8.90656,89.9292 11.5,91.5C 11.2907,92.086 10.9574,92.586 10.5,93C 12.8877,94.8605 15.5544,96.1939 18.5,97C 19.1268,99.3434 20.1268,101.51 21.5,103.5C 22.4287,102.311 22.762,100.978 22.5,99.5C 27.3458,99.459 31.3458,97.6257 34.5,94C 36.856,93.8446 39.1893,93.8446 41.5,94C 42.1667,93 42.8333,92 43.5,91C 51.4885,86.212 59.1552,80.8787 66.5,75C 68.5,74.5 70.5,74 72.5,73.5C 75.9746,74.1432 77.1412,76.1432 76,79.5C 73.8168,82.4089 70.9835,84.2422 67.5,85C 68.9047,86.2692 70.5714,86.7692 72.5,86.5C 72.719,87.675 72.3857,88.675 71.5,89.5C 70.2613,89.9424 69.2613,90.6091 68.5,91.5C 71.8113,92.1546 74.478,93.8213 76.5,96.5C 77.0656,98.6969 77.7323,100.864 78.5,103C 78.2409,104.261 77.5742,105.261 76.5,106C 77.3081,106.308 77.9747,106.808 78.5,107.5C 77.2634,108.281 76.2634,109.281 75.5,110.5C 78.1197,112.465 77.7864,113.965 74.5,115C 80.274,124.707 85.9407,134.541 91.5,144.5C 90.4107,146.117 88.744,146.95 86.5,147C 85.6634,148.011 85.33,149.178 85.5,150.5C 84.2841,159.168 84.2841,167.835 85.5,176.5C 84.7957,178.535 84.129,180.535 83.5,182.5C 85.2624,182.643 86.9291,182.309 88.5,181.5C 90.994,184.826 93.994,187.66 97.5,190C 110.611,192.554 121.278,188.721 129.5,178.5C 126.823,174.043 124.656,169.376 123,164.5C 121.045,163.547 119.378,162.213 118,160.5C 114.517,155.354 110.683,150.521 106.5,146C 102.848,145.501 99.1817,145.335 95.5,145.5C 95.1667,145.5 94.8333,145.5 94.5,145.5C 91.8178,138.973 88.6511,132.639 85,126.5C 84.1902,121.743 84.5236,117.076 86,112.5C 88.3284,111.336 90.1618,109.67 91.5,107.5C 96.8988,102.09 102.732,97.0904 109,92.5C 109.202,90.7444 109.702,89.0777 110.5,87.5C 111.167,87.8333 111.833,88.1667 112.5,88.5C 113.271,86.1378 114.105,83.8045 115,81.5C 122.31,79.0147 127.477,74.3481 130.5,67.5C 134.453,66.2387 138.453,65.072 142.5,64C 146.148,62.066 149.814,60.2327 153.5,58.5C 155.027,58.573 156.027,57.9063 156.5,56.5C 161.214,56.7756 165.881,57.4423 170.5,58.5C 172.355,58.6598 173.688,57.9931 174.5,56.5C 175.71,56.0679 176.71,55.4013 177.5,54.5C 184.637,52.1864 191.97,50.5198 199.5,49.5 Z"/></g>
<g><path style="opacity:1" fill="#9497dc" d="M 168.5,51.5 C 166.953,52.5152 166.12,53.8486 166,55.5C 168.381,56.435 170.881,56.7683 173.5,56.5C 173.5,55.1667 173.5,53.8333 173.5,52.5C 174.434,53.5676 174.768,54.901 174.5,56.5C 173.688,57.9931 172.355,58.6598 170.5,58.5C 165.881,57.4423 161.214,56.7756 156.5,56.5C 154.621,56.6068 154.288,56.1068 155.5,55C 157.708,54.8091 159.708,54.3091 161.5,53.5C 162.126,51.3737 163.459,49.707 165.5,48.5C 166.855,49.1882 167.855,50.1882 168.5,51.5 Z"/></g>
<g><path style="opacity:1" fill="#7b7fd4" d="M 168.5,51.5 C 168.833,51.5 169.167,51.5 169.5,51.5C 170.568,52.4345 171.901,52.7678 173.5,52.5C 173.5,53.8333 173.5,55.1667 173.5,56.5C 170.881,56.7683 168.381,56.435 166,55.5C 166.12,53.8486 166.953,52.5152 168.5,51.5 Z"/></g>
<g><path style="opacity:1" fill="#adafe5" d="M 161.5,53.5 C 159.708,54.3091 157.708,54.8091 155.5,55C 154.288,56.1068 154.621,56.6068 156.5,56.5C 156.027,57.9063 155.027,58.573 153.5,58.5C 153.672,57.5084 153.338,56.8417 152.5,56.5C 152.953,55.5416 153.619,54.7083 154.5,54C 156.81,53.5034 159.143,53.3367 161.5,53.5 Z"/></g>
<g><path style="opacity:1" fill="#d7cfe9" d="M 169.5,51.5 C 171.833,51.5 174.167,51.5 176.5,51.5C 176.557,52.609 176.89,53.609 177.5,54.5C 176.71,55.4013 175.71,56.0679 174.5,56.5C 174.768,54.901 174.434,53.5676 173.5,52.5C 171.901,52.7678 170.568,52.4345 169.5,51.5 Z"/></g>
<g><path style="opacity:1" fill="#8a8dd8" d="M 152.5,56.5 C 153.338,56.8417 153.672,57.5084 153.5,58.5C 149.814,60.2327 146.148,62.066 142.5,64C 138.453,65.072 134.453,66.2387 130.5,67.5C 129.833,67.5 129.5,67.1667 129.5,66.5C 131.296,62.0041 132.796,57.3374 134,52.5C 134.87,53.1079 135.37,53.9412 135.5,55C 134.678,57.4339 134.344,59.9339 134.5,62.5C 140.645,61.1185 146.645,59.1185 152.5,56.5 Z"/></g>
<g><path style="opacity:1" fill="#c6f4d5" d="M -0.5,81.5 C -0.5,81.1667 -0.5,80.8333 -0.5,80.5C 1.5273,80.3379 3.5273,80.5045 5.5,81C 7.4257,81.4224 8.4257,82.5891 8.5,84.5C 5.57862,83.304 2.57862,82.304 -0.5,81.5 Z"/></g>
<g><path style="opacity:1" fill="#e4bddc" d="M 129.5,66.5 C 129.5,67.1667 129.833,67.5 130.5,67.5C 127.477,74.3481 122.31,79.0147 115,81.5C 114.105,83.8045 113.271,86.1378 112.5,88.5C 111.833,88.1667 111.167,87.8333 110.5,87.5C 109.702,89.0777 109.202,90.7444 109,92.5C 102.732,97.0904 96.8988,102.09 91.5,107.5C 90.8333,107.5 90.5,107.167 90.5,106.5C 95.1361,102.696 99.3028,98.3623 103,93.5C 103.333,91.1667 103.667,88.8333 104,86.5C 107.589,83.359 111.089,79.359 114.5,74.5C 115.665,75.4911 116.832,76.4911 118,77.5C 118.5,77.3333 119,77.1667 119.5,77C 122.335,72.9989 125.668,69.4989 129.5,66.5 Z"/></g>
<g><path style="opacity:1" fill="#a4e9ce" d="M 75.5,90.5 C 76.5,91.1667 77.5,91.8333 78.5,92.5C 79.8451,97.5249 82.0118,102.192 85,106.5C 86.7755,107.536 88.6089,107.536 90.5,106.5C 90.5,107.167 90.8333,107.5 91.5,107.5C 90.1618,109.67 88.3284,111.336 86,112.5C 84.5236,117.076 84.1902,121.743 85,126.5C 88.6511,132.639 91.8178,138.973 94.5,145.5C 93.5416,145.047 92.7083,144.381 92,143.5C 91.6012,143.728 91.4346,144.062 91.5,144.5C 85.9407,134.541 80.274,124.707 74.5,115C 77.7864,113.965 78.1197,112.465 75.5,110.5C 76.2634,109.281 77.2634,108.281 78.5,107.5C 77.9747,106.808 77.3081,106.308 76.5,106C 77.5742,105.261 78.2409,104.261 78.5,103C 77.7323,100.864 77.0656,98.6969 76.5,96.5C 74.478,93.8213 71.8113,92.1546 68.5,91.5C 69.2613,90.6091 70.2613,89.9424 71.5,89.5C 72.3857,88.675 72.719,87.675 72.5,86.5C 70.5714,86.7692 68.9047,86.2692 67.5,85C 70.9835,84.2422 73.8168,82.4089 76,79.5C 77.1412,76.1432 75.9746,74.1432 72.5,73.5C 70.5,74 68.5,74.5 66.5,75C 59.1552,80.8787 51.4885,86.212 43.5,91C 42.8333,92 42.1667,93 41.5,94C 39.1893,93.8446 36.856,93.8446 34.5,94C 31.3458,97.6257 27.3458,99.459 22.5,99.5C 22.762,100.978 22.4287,102.311 21.5,103.5C 20.1268,101.51 19.1268,99.3434 18.5,97C 15.5544,96.1939 12.8877,94.8605 10.5,93C 10.9574,92.586 11.2907,92.086 11.5,91.5C 8.90656,89.9292 7.90656,87.5959 8.5,84.5C 10.3008,86.1378 11.9675,87.9711 13.5,90C 18.08,89.4032 20.4133,91.5698 20.5,96.5C 25.4163,95.744 30.083,94.244 34.5,92C 37.5266,89.1111 41.1932,87.4444 45.5,87C 50.4722,82.235 56.1388,78.5683 62.5,76C 67.835,70.544 68.5017,64.7107 64.5,58.5C 66.396,57.5344 68.396,57.2011 70.5,57.5C 70.335,60.8499 70.5017,64.1832 71,67.5C 74.034,72.5374 77.3673,72.5374 81,67.5C 82.689,64.1085 84.8557,61.1085 87.5,58.5C 89.5184,64.2463 87.5184,67.7463 81.5,69C 78.3856,73.2604 79.0523,76.7604 83.5,79.5C 80.1282,80.2686 77.2949,81.9352 75,84.5C 74.2109,86.7116 74.3775,88.7116 75.5,90.5 Z"/></g>
<g><path style="opacity:1" fill="#dbf5c5" d="M 78.5,92.5 C 77.5,91.8333 76.5,91.1667 75.5,90.5C 76.8734,90.6567 78.2068,90.49 79.5,90C 81.1667,87.6667 82.8333,85.3333 84.5,83C 85.1667,82.3333 85.8333,82.3333 86.5,83C 84.6227,85.2513 83.1227,87.7513 82,90.5C 81.1841,91.8228 80.0174,92.4894 78.5,92.5 Z"/></g>
<g><path style="opacity:1" fill="#fab1be" d="M 68.5,91.5 C 67.046,94.4678 64.7127,95.9678 61.5,96C 62.5035,92.4952 64.8368,90.9952 68.5,91.5 Z"/></g>
<g><path style="opacity:1" fill="#9be9ca" d="M 94.5,145.5 C 94.8333,145.5 95.1667,145.5 95.5,145.5C 97.8303,147.584 98.997,150.251 99,153.5C 102.708,155.91 105.208,159.243 106.5,163.5C 109.98,166.146 113.314,168.979 116.5,172C 119.186,173.368 121.853,174.701 124.5,176C 126.394,177.079 126.727,178.413 125.5,180C 124.551,180.617 123.718,180.451 123,179.5C 121.004,181.05 118.838,182.384 116.5,183.5C 116.089,182.738 115.923,181.738 116,180.5C 114.477,182.62 112.644,182.953 110.5,181.5C 109.719,182.737 108.719,183.737 107.5,184.5C 102.963,183.097 98.6295,181.263 94.5,179C 92.8043,175.207 90.3043,172.041 87,169.5C 86.8279,162.987 86.3279,156.653 85.5,150.5C 85.33,149.178 85.6634,148.011 86.5,147C 88.744,146.95 90.4107,146.117 91.5,144.5C 91.4346,144.062 91.6012,143.728 92,143.5C 92.7083,144.381 93.5416,145.047 94.5,145.5 Z"/></g>
<g><path style="opacity:1" fill="#b5f0d9" d="M 95.5,145.5 C 99.1817,145.335 102.848,145.501 106.5,146C 110.683,150.521 114.517,155.354 118,160.5C 119.378,162.213 121.045,163.547 123,164.5C 124.656,169.376 126.823,174.043 129.5,178.5C 121.278,188.721 110.611,192.554 97.5,190C 93.994,187.66 90.994,184.826 88.5,181.5C 86.9291,182.309 85.2624,182.643 83.5,182.5C 84.129,180.535 84.7957,178.535 85.5,176.5C 84.2841,167.835 84.2841,159.168 85.5,150.5C 86.3279,156.653 86.8279,162.987 87,169.5C 90.3043,172.041 92.8043,175.207 94.5,179C 98.6295,181.263 102.963,183.097 107.5,184.5C 108.719,183.737 109.719,182.737 110.5,181.5C 112.644,182.953 114.477,182.62 116,180.5C 115.923,181.738 116.089,182.738 116.5,183.5C 118.838,182.384 121.004,181.05 123,179.5C 123.718,180.451 124.551,180.617 125.5,180C 126.727,178.413 126.394,177.079 124.5,176C 121.853,174.701 119.186,173.368 116.5,172C 113.314,168.979 109.98,166.146 106.5,163.5C 105.208,159.243 102.708,155.91 99,153.5C 98.997,150.251 97.8303,147.584 95.5,145.5 Z"/></g>
<g><path style="opacity:1" fill="#63b695" d="M 102.5,163.5 C 103.75,163.577 104.583,164.244 105,165.5C 105.333,165.167 105.667,164.833 106,164.5C 106.26,166.618 107.26,168.284 109,169.5C 109.333,168.833 109.667,168.167 110,167.5C 110.749,168.635 110.583,169.635 109.5,170.5C 108.167,171.167 106.833,171.833 105.5,172.5C 103.259,172.119 100.926,171.952 98.5,172C 99.1672,168.833 100.501,166 102.5,163.5 Z"/></g>
</svg>

<svg xmlns="http://www.w3.org/2000/svg" width="200" height="200" style="shape-rendering:geometricPrecision;text-rendering:geometricPrecision;image-rendering:optimizeQuality;fill-rule:evenodd;clip-rule:evenodd"><path style="opacity:1" fill="#fefefe" d="M-.5-.5h200v46c-3.098-1.682-6.431-2.182-10-1.5a45.538 45.538 0 0 1-13 7.5h-8c-.645-1.312-1.645-2.312-3-3-2.041 1.207-3.374 2.874-4 5a24.939 24.939 0 0 0-7 .5c-.881.708-1.547 1.542-2 2.5a95.08 95.08 0 0 1-18 6 19.522 19.522 0 0 1 1-7.5c-.13-1.059-.63-1.892-1.5-2.5a108.012 108.012 0 0 1-4.5 14 49.859 49.859 0 0 0-10 10.5l-1.5.5a612.617 612.617 0 0 0-3.5-3c-3.411 4.859-6.911 8.859-10.5 12l-1 7a77.137 77.137 0 0 1-12.5 13c-1.891 1.036-3.725 1.036-5.5 0a44.648 44.648 0 0 1-6.5-14c1.517-.01 2.684-.677 3.5-2a28.409 28.409 0 0 1 4.5-7.5c-.667-.667-1.333-.667-2 0l-5 7a8.434 8.434 0 0 1-4 .5c-1.123-1.788-1.29-3.788-.5-6 2.295-2.565 5.128-4.231 8.5-5-4.448-2.74-5.114-6.24-2-10.5 6.018-1.254 8.018-4.754 6-10.5a33.553 33.553 0 0 0-6.5 9c-3.633 5.037-6.966 5.037-10 0a50.441 50.441 0 0 1-.5-10 9.864 9.864 0 0 0-6 1c4.002 6.21 3.335 12.044-2 17.5a53.074 53.074 0 0 0-17 11c-4.307.444-7.973 2.111-11 5a46.224 46.224 0 0 1-14 4.5c-.087-4.93-2.42-7.097-7-6.5a39.978 39.978 0 0 0-5-5.5c-.074-1.91-1.074-3.078-3-3.5a18.436 18.436 0 0 0-6-.5v-81z"/><path style="opacity:1" fill="#d9d48b" d="M199.5 45.5v4a126.05 126.05 0 0 0-22 5 5.727 5.727 0 0 1-1-3 45.538 45.538 0 0 0 13-7.5c3.569-.682 6.902-.182 10 1.5z"/><path style="opacity:1" fill="#fefefe" d="M199.5 49.5v150H-.5v-118a71.235 71.235 0 0 1 9 3c-.593 3.096.407 5.43 3 7a3.646 3.646 0 0 1-1 1.5 22.584 22.584 0 0 0 8 4 20.842 20.842 0 0 0 3 6.5c.929-1.189 1.262-2.522 1-4 4.846-.041 8.846-1.874 12-5.5a52.61 52.61 0 0 1 7 0l2-3a207.421 207.421 0 0 0 23-16l6-1.5c3.475.643 4.641 2.643 3.5 6-2.183 2.909-5.016 4.742-8.5 5.5 1.405 1.27 3.071 1.77 5 1.5.219 1.175-.114 2.175-1 3-1.239.442-2.239 1.11-3 2 3.311.655 5.978 2.321 8 5a73.08 73.08 0 0 0 2 6.5c-.26 1.261-.926 2.261-2 3a4.458 4.458 0 0 1 2 1.5 9.433 9.433 0 0 0-3 3c2.62 1.965 2.286 3.465-1 4.5a1239.179 1239.179 0 0 1 17 29.5c-1.09 1.617-2.756 2.45-5 2.5-.837 1.011-1.17 2.178-1 3.5a93.117 93.117 0 0 0 0 26 270.432 270.432 0 0 0-2 6 9.107 9.107 0 0 0 5-1 36.45 36.45 0 0 0 9 8.5c13.111 2.554 23.778-1.279 32-11.5a72.24 72.24 0 0 1-6.5-14 14.506 14.506 0 0 1-5-4 122.041 122.041 0 0 0-11.5-14.5 60.932 60.932 0 0 0-11-.5h-1a144.807 144.807 0 0 0-9.5-19c-.81-4.757-.476-9.424 1-14 2.328-1.164 4.162-2.83 5.5-5a149.286 149.286 0 0 1 17.5-15 14.72 14.72 0 0 1 1.5-5l2 1a135.26 135.26 0 0 1 2.5-7c7.31-2.485 12.477-7.152 15.5-14a250.38 250.38 0 0 1 12-3.5 255.901 255.901 0 0 1 11-5.5c1.527.073 2.527-.594 3-2 4.714.276 9.381.942 14 2 1.855.16 3.188-.507 4-2 1.21-.432 2.21-1.099 3-2a126.05 126.05 0 0 1 22-5z"/><path style="opacity:1" fill="#9497dc" d="M168.5 51.5c-1.547 1.015-2.38 2.349-2.5 4 2.381.935 4.881 1.268 7.5 1v-4c.934 1.068 1.268 2.401 1 4-.812 1.493-2.145 2.16-4 2a84.785 84.785 0 0 0-14-2c-1.879.107-2.212-.393-1-1.5 2.208-.19 4.208-.69 6-1.5.626-2.126 1.959-3.793 4-5 1.355.688 2.355 1.688 3 3z"/><path style="opacity:1" fill="#7b7fd4" d="M168.5 51.5h1c1.068.934 2.401 1.268 4 1v4c-2.619.268-5.119-.065-7.5-1 .12-1.651.953-2.985 2.5-4z"/><path style="opacity:1" fill="#adafe5" d="M161.5 53.5c-1.792.81-3.792 1.31-6 1.5-1.212 1.107-.879 1.607 1 1.5-.473 1.406-1.473 2.073-3 2 .172-.992-.162-1.658-1-2 .453-.958 1.119-1.792 2-2.5a24.939 24.939 0 0 1 7-.5z"/><path style="opacity:1" fill="#d7cfe9" d="M169.5 51.5h7a5.727 5.727 0 0 0 1 3c-.79.901-1.79 1.568-3 2 .268-1.599-.066-2.932-1-4-1.599.268-2.932-.066-4-1z"/><path style="opacity:1" fill="#8a8dd8" d="M152.5 56.5c.838.342 1.172 1.008 1 2a255.901 255.901 0 0 0-11 5.5 250.38 250.38 0 0 0-12 3.5c-.667 0-1-.333-1-1a108.012 108.012 0 0 0 4.5-14c.87.608 1.37 1.441 1.5 2.5a19.522 19.522 0 0 0-1 7.5 95.08 95.08 0 0 0 18-6z"/><path style="opacity:1" fill="#c6f4d5" d="M-.5 81.5v-1a18.436 18.436 0 0 1 6 .5c1.926.422 2.926 1.59 3 3.5a71.235 71.235 0 0 0-9-3z"/><path style="opacity:1" fill="#e4bddc" d="M129.5 66.5c0 .667.333 1 1 1-3.023 6.848-8.19 11.515-15.5 14a135.26 135.26 0 0 0-2.5 7l-2-1a14.72 14.72 0 0 0-1.5 5 149.286 149.286 0 0 0-17.5 15c-.667 0-1-.333-1-1a77.137 77.137 0 0 0 12.5-13l1-7c3.589-3.141 7.089-7.141 10.5-12 1.165.991 2.332 1.991 3.5 3l1.5-.5a49.859 49.859 0 0 1 10-10.5z"/><path style="opacity:1" fill="#a4e9ce" d="m75.5 90.5 3 2a44.648 44.648 0 0 0 6.5 14c1.775 1.036 3.609 1.036 5.5 0 0 .667.333 1 1 1-1.338 2.17-3.172 3.836-5.5 5-1.476 4.576-1.81 9.243-1 14a144.807 144.807 0 0 1 9.5 19c-.958-.453-1.792-1.119-2.5-2-.399.228-.565.562-.5 1a1239.179 1239.179 0 0 0-17-29.5c3.286-1.035 3.62-2.535 1-4.5a9.433 9.433 0 0 1 3-3 4.458 4.458 0 0 0-2-1.5c1.074-.739 1.74-1.739 2-3a73.08 73.08 0 0 1-2-6.5c-2.022-2.679-4.689-4.345-8-5 .761-.89 1.761-1.558 3-2 .886-.825 1.219-1.825 1-3-1.929.27-3.595-.23-5-1.5 3.484-.758 6.317-2.591 8.5-5.5 1.141-3.357-.025-5.357-3.5-6l-6 1.5a207.421 207.421 0 0 1-23 16l-2 3a52.61 52.61 0 0 0-7 0c-3.154 3.626-7.154 5.459-12 5.5.262 1.478-.071 2.811-1 4a20.842 20.842 0 0 1-3-6.5 22.584 22.584 0 0 1-8-4c.457-.414.79-.914 1-1.5-2.593-1.57-3.593-3.904-3-7a39.978 39.978 0 0 1 5 5.5c4.58-.597 6.913 1.57 7 6.5a46.224 46.224 0 0 0 14-4.5c3.027-2.889 6.693-4.556 11-5a53.074 53.074 0 0 1 17-11c5.335-5.456 6.002-11.29 2-17.5a9.864 9.864 0 0 1 6-1c-.165 3.35.002 6.683.5 10 3.034 5.037 6.367 5.037 10 0a33.553 33.553 0 0 1 6.5-9c2.018 5.746.018 9.246-6 10.5-3.114 4.26-2.448 7.76 2 10.5-3.372.769-6.205 2.435-8.5 5-.79 2.212-.623 4.212.5 6z"/><path style="opacity:1" fill="#dbf5c5" d="m78.5 92.5-3-2a8.434 8.434 0 0 0 4-.5l5-7c.667-.667 1.333-.667 2 0a28.409 28.409 0 0 0-4.5 7.5c-.816 1.323-1.983 1.99-3.5 2z"/><path style="opacity:1" fill="#fab1be" d="M68.5 91.5c-1.454 2.968-3.787 4.468-7 4.5 1.004-3.505 3.337-5.005 7-4.5z"/><path style="opacity:1" fill="#9be9ca" d="M94.5 145.5h1c2.33 2.084 3.497 4.751 3.5 8 3.708 2.41 6.208 5.743 7.5 10a120.678 120.678 0 0 1 10 8.5 602.298 602.298 0 0 0 8 4c1.894 1.079 2.227 2.413 1 4-.949.617-1.782.451-2.5-.5a35.478 35.478 0 0 1-6.5 4c-.411-.762-.577-1.762-.5-3-1.523 2.12-3.356 2.453-5.5 1a9.425 9.425 0 0 1-3 3 70.03 70.03 0 0 1-13-5.5c-1.696-3.793-4.196-6.959-7.5-9.5a177.618 177.618 0 0 0-1.5-19c-.17-1.322.163-2.489 1-3.5 2.244-.05 3.91-.883 5-2.5-.065-.438.101-.772.5-1 .708.881 1.542 1.547 2.5 2z"/><path style="opacity:1" fill="#b5f0d9" d="M95.5 145.5a60.932 60.932 0 0 1 11 .5 122.041 122.041 0 0 1 11.5 14.5 14.506 14.506 0 0 0 5 4 72.24 72.24 0 0 0 6.5 14c-8.222 10.221-18.889 14.054-32 11.5a36.45 36.45 0 0 1-9-8.5 9.107 9.107 0 0 1-5 1 270.432 270.432 0 0 1 2-6 93.117 93.117 0 0 1 0-26 177.618 177.618 0 0 1 1.5 19c3.304 2.541 5.804 5.707 7.5 9.5a70.03 70.03 0 0 0 13 5.5 9.425 9.425 0 0 0 3-3c2.144 1.453 3.977 1.12 5.5-1-.077 1.238.089 2.238.5 3a35.478 35.478 0 0 0 6.5-4c.718.951 1.551 1.117 2.5.5 1.227-1.587.894-2.921-1-4a602.298 602.298 0 0 1-8-4 120.678 120.678 0 0 0-10-8.5c-1.292-4.257-3.792-7.59-7.5-10-.003-3.249-1.17-5.916-3.5-8z"/><path style="opacity:1" fill="#63b695" d="M102.5 163.5c1.25.077 2.083.744 2.5 2l1-1c.26 2.118 1.26 3.784 3 5l1-2c.749 1.135.583 2.135-.5 3l-4 2a37.291 37.291 0 0 0-7-.5c.667-3.167 2.001-6 4-8.5z"/></svg>
